apps/mobile/assets/icons/phosphor/funnel.svg

<svg
  height="32"
  viewBox="0 0 256 256"
  width="32"
  xmlns="http://www.w3.org/2000/svg"
>
  <path
    d="m230.6 49.53a15.81 15.81 0 0 0 -14.6-9.53h-176a16 16 0 0 0 -11.81 26.76l.08.09 67.73 72.32v76.83a16 16 0 0 0 24.87 13.32l32-21.34a16 16 0 0 0 7.13-13.32v-55.49l67.74-72.32.08-.09a15.8 15.8 0 0 0 2.78-17.23zm-84.42 81.05a8 8 0 0 0 -2.18 5.42v58.66l-32 21.34v-80a8 8 0 0 0 -2.16-5.47l-69.84-74.53h176z"
  />
</svg>

<svg xmlns="http://www.w3.org/2000/svg" width="32" height="32" fill="#000000" viewBox="0 0 256 256"><path d="M230.6,49.53A15.81,15.81,0,0,0,216,40H40A16,16,0,0,0,28.19,66.76l.08.09L96,139.17V216a16,16,0,0,0,24.87,13.32l32-21.34A16,16,0,0,0,160,194.66V139.17l67.74-72.32.08-.09A15.8,15.8,0,0,0,230.6,49.53ZM40,56h0Zm106.18,74.58A8,8,0,0,0,144,136v58.66L112,216V136a8,8,0,0,0-2.16-5.47L40,56H216Z"></path></svg>
